Obsidian-SemiLight/actions/22s/mail-reply-list.svg

<svg viewBox="0 0 22 22" xmlns="http://www.w3.org/2000/svg"><path d="m1 3v9h1v-7.7773438-.2226562h.0488281l.2226563.2226562 5.7519531 5.7539063-2.0234375 2.0234375h1.4140625l1.3164063-1.316406 1.4531252 1.451172.816406.814453h.001953l.814453-.814453 1.453125-1.451172 1.316407 1.316406h1.414062l-2.023438-2.0234375 5.751954-5.7539063.222656-.2226562h.048828v.2226562 7.7773438h1v-8-1h-1-.462891-17.0742184-.4628906-.9511719zm2.4628906 1h15.0742184l-7.537109 7.537109zm.5371094 9-3 3 3 3v-2h1 1v-2h-1-1zm11 1v1h6v-1zm0 2v1h6v-1zm-7 2v1h6v-1zm7 0v1h6v-1z" fill="#4d4d4d"/></svg>

<svg xmlns="http://www.w3.org/2000/svg" viewBox="0 0 22 22">
  <defs id="defs3051">
    <style type="text/css" id="current-color-scheme">
      .ColorScheme-Text {
        color:#4d4d4d;
      }
      </style>
  </defs>
 <path 
    style="fill:currentColor;fill-opacity:1;stroke:none" 
    d="M 1 3 L 1 12 L 2 12 L 2 4.2226562 L 2 4 L 2.0488281 4 L 2.2714844 4.2226562 L 8.0234375 9.9765625 L 6 12 L 7.4140625 12 L 8.7304688 10.683594 L 10.183594 12.134766 L 11 12.949219 L 11.001953 12.949219 L 11.816406 12.134766 L 13.269531 10.683594 L 14.585938 12 L 16 12 L 13.976562 9.9765625 L 19.728516 4.2226562 L 19.951172 4 L 20 4 L 20 4.2226562 L 20 12 L 21 12 L 21 4 L 21 3 L 20 3 L 19.537109 3 L 2.4628906 3 L 2 3 L 1.0488281 3 L 1 3 z M 3.4628906 4 L 18.537109 4 L 11 11.537109 L 3.4628906 4 z M 4 13 L 1 16 L 4 19 L 4 17 L 5 17 L 6 17 L 6 15 L 5 15 L 4 15 L 4 13 z M 15 14 L 15 15 L 21 15 L 21 14 L 15 14 z M 15 16 L 15 17 L 21 17 L 21 16 L 15 16 z M 8 18 L 8 19 L 14 19 L 14 18 L 8 18 z M 15 18 L 15 19 L 21 19 L 21 18 L 15 18 z "
    class="ColorScheme-Text"
    />  
</svg>
